img/svg/16/net/lunascape.svg

<svg xmlns="http://www.w3.org/2000/svg" viewBox="0 0 16 16" enable-background="new 0 0 16 16"><path d="M12.498 1h-8.996c-1.382 0-2.502 1.12-2.502 2.502v8.996c0 1.382 1.12 2.502 2.502 2.502h8.996c1.382 0 2.502-1.12 2.502-2.502v-8.996c0-1.382-1.12-2.502-2.502-2.502zm-4.498 13c-3.314 0-6-2.686-6-6 0-.218.013-.433.036-.645.185 2.593 2.324 4.645 4.964 4.645 2.761 0 5-2.239 5-5 0-2.64-2.052-4.779-4.645-4.964.212-.023.427-.036.645-.036 3.314 0 6 2.686 6 6s-2.686 6-6 6z" fill="#ccc"/></svg>

<svg xmlns="http://www.w3.org/2000/svg" viewBox="0 0 16 16"><path fill="#ccc" d="M12.498 1H3.502A2.502 2.502 0 0 0 1 3.502v8.996A2.502 2.502 0 0 0 3.502 15h8.996A2.502 2.502 0 0 0 15 12.498V3.502A2.502 2.502 0 0 0 12.498 1zM8 14a6 6 0 0 1-5.964-6.645C2.221 9.948 4.36 12 7 12a5 5 0 0 0 5-5c0-2.64-2.052-4.779-4.645-4.964A6 6 0 1 1 8 14z"/></svg>
